images/svg/icons/social/gplus.svg

<?xml version="1.0" encoding="UTF-8" standalone="no"?>
<svg width="40px" height="40px" viewBox="0 0 40 40" version="1.1" xmlns="http://www.w3.org/2000/svg" xmlns:xlink="http://www.w3.org/1999/xlink" xmlns:sketch="http://www.bohemiancoding.com/sketch/ns">
    <!-- Generator: Sketch 3.5.2 (25235) - http://www.bohemiancoding.com/sketch -->
    <title>gplus</title>
    <desc>Created with Sketch.</desc>
    <defs></defs>
    <g id="Icon" stroke="none" stroke-width="1" fill="none" fill-rule="evenodd" sketch:type="MSPage">
        <g id="Social-media-Icons" sketch:type="MSArtboardGroup" transform="translate(-37.000000, -137.000000)">
            <g id="gplus" sketch:type="MSLayerGroup" transform="translate(37.000000, 137.000000)">
                <path d="M0,0 L0,40 L40.0036852,40 L40.0036852,0 L0,0 L0,0 Z" id="bg" fill="#4B4B4C" sketch:type="MSShapeGroup"></path>
                <path d="M20.6916471,21.607903 C20.0549045,21.1831287 18.9936668,20.121193 18.9936668,19.5902251 C18.9936668,18.8468701 19.2059144,18.634483 20.267152,17.6787408 C21.4345135,16.8291922 22.1773798,15.6610629 22.1773798,14.1743529 C22.1773798,12.5814494 21.4345135,10.8823522 20.0549045,10.4575779 L22.1773798,10.4575779 L23.6631126,9.28944863 L17.0834391,9.28944863 C14.1119736,9.28944863 11.3527557,11.5195136 11.3527557,14.1743529 C11.3527557,16.8291922 13.3691072,18.9530637 16.3405727,18.9530637 L16.9773153,18.9530637 C16.7650678,19.377838 16.5528202,19.6964187 16.5528202,20.2273865 C16.5528202,20.9707415 16.9773153,21.607903 17.4018104,22.1388708 L16.2344489,22.1388708 C12.6262409,22.1388708 9.7608992,24.4751294 9.7608992,26.9175816 C9.7608992,29.3600337 12.8384884,30.7405502 16.5528202,30.7405502 C20.6916471,30.7405502 23.02637,28.4042916 23.02637,25.9618394 C23.02637,24.0503551 22.3896274,22.8822258 20.6916471,21.607903 L20.6916471,21.607903 Z M17.1895628,18.4220958 C15.4915826,18.4220958 13.8997261,16.5106115 13.5813548,14.2805465 C13.3691072,12.0504815 14.4303449,10.4575779 16.1283252,10.4575779 C17.8263054,10.4575779 19.4181619,12.3690622 19.7365332,14.5991272 C20.0549045,16.6168051 18.8875431,18.4220958 17.1895628,18.4220958 L17.1895628,18.4220958 Z M16.5528202,29.6786144 C14.0058498,29.6786144 12.2017458,28.0857109 12.2017458,26.1742266 C12.2017458,24.2627423 14.4303449,22.6698387 16.9773153,22.7760323 C17.6140579,22.7760323 18.1446767,22.8822258 18.5691718,22.9884194 C19.9487807,23.9441615 20.9038946,24.4751294 21.2222659,25.6432587 C21.2222659,25.8556458 21.3283897,26.1742266 21.3283897,26.2804201 C21.3283897,28.0857109 20.0549045,29.6786144 16.5528202,29.6786144 Z M27.8019394,15.9796437 L25.6794641,15.9796437 L25.6794641,18.5282894 L23.1324937,18.5282894 L23.1324937,20.6521608 L25.6794641,20.6521608 L25.6794641,23.094613 L27.8019394,23.094613 L27.8019394,20.6521608 L30.242786,20.6521608 L30.242786,18.5282894 L27.8019394,18.5282894 L27.8019394,15.9796437 Z" id="icon" fill="#FFFFFF" sketch:type="MSShapeGroup"></path>
            </g>
        </g>
    </g>
</svg>

<?xml version="1.0" encoding="utf-8"?>
<!-- Generator: Adobe Illustrator 19.2.0, SVG Export Plug-In . SVG Version: 6.00 Build 0)  -->
<svg version="1.1" id="Layer_1" xmlns:sketch="http://www.bohemiancoding.com/sketch/ns"
	 xmlns="http://www.w3.org/2000/svg" xmlns:xlink="http://www.w3.org/1999/xlink" x="0px" y="0px" viewBox="0 0 40 40"
	 style="enable-background:new 0 0 40 40;" xml:space="preserve">
<style type="text/css">
	.st0{fill:#4B4B4C;}
	.st1{fill:#FFFFFF;}
</style>
<title>gplus</title>
<desc>Created with Sketch.</desc>
<g id="Page-1" sketch:type="MSPage">
	<g id="gplus" sketch:type="MSLayerGroup">
		<path id="bg" sketch:type="MSShapeGroup" class="st0" d="M0,0v40h40V0H0L0,0z"/>
		<path id="icon" sketch:type="MSShapeGroup" class="st1" d="M20.7,21.6c-0.6-0.4-1.7-1.5-1.7-2c0-0.7,0.2-1,1.3-1.9
			c1.2-0.8,1.9-2,1.9-3.5c0-1.6-0.7-3.3-2.1-3.7h2.1l1.5-1.2h-6.6c-3,0-5.7,2.2-5.7,4.9s2,4.8,5,4.8H17c-0.2,0.4-0.4,0.7-0.4,1.3
			c0,0.7,0.4,1.4,0.8,1.9h-1.2c-3.6,0-6.5,2.3-6.5,4.8s3.1,3.8,6.8,3.8c4.1,0,6.5-2.3,6.5-4.8C23,24,22.4,22.9,20.7,21.6L20.7,21.6z
			 M17.2,18.4c-1.7,0-3.3-1.9-3.6-4.1c-0.2-2.2,0.8-3.8,2.5-3.8c1.7,0,3.3,1.9,3.6,4.1C20.1,16.6,18.9,18.4,17.2,18.4L17.2,18.4z
			 M16.6,29.7c-2.5,0-4.4-1.6-4.4-3.5s2.2-3.5,4.8-3.4c0.6,0,1.2,0.1,1.6,0.2c1.4,1,2.3,1.5,2.7,2.7c0,0.2,0.1,0.5,0.1,0.6
			C21.3,28.1,20.1,29.7,16.6,29.7z M27.8,16h-2.1v2.5h-2.5v2.1h2.5v2.4h2.1v-2.4h2.4v-2.1h-2.4V16z"/>
	</g>
</g>
</svg>
